Papirus/24x24/apps/crossover.svg

<?xml version="1.0" encoding="UTF-8" standalone="no"?>
<svg xmlns="http://www.w3.org/2000/svg" height="24" width="24" version="1">
 <rect transform="matrix(0,-1,-1,0,0,0)" rx="9.995" ry="9.991" height="19.982" width="19.991" y="-21.99" x="-21.99" fill="#ccc"/>
 <path opacity=".2" fill="#fff" d="m12 2.0001c-5.535 0-9.991 4.458-9.991 9.9955 0 0.08382-0.002 0.16657 0 0.24989 0.1322-5.4205 4.54-9.7454 9.991-9.7454s9.859 4.3248 9.991 9.7454c0.002-0.08332 0-0.16606 0-0.24989 0-5.537-4.456-9.995-9.991-9.995z"/>
 <path opacity=".2" d="m2.0058 12.245c-0.002 0.084-0.0058 0.166-0.0058 0.25 0 5.543 4.46 10.005 10 10.005s10-4.462 10-10.005c0-0.08404-0.004-0.16658-0.006-0.25011-0.132 5.4254-4.538 9.7544-9.994 9.7544s-9.862-4.3289-9.994-9.7544z"/>
 <path opacity=".1" d="m13.023 4.9922c0.48 0.9201 0.86 1.7835 1.166 2.6016-0.882-0.0716-1.707-0.1105-2.447-0.0977-6.3618 0.1095-7.4277 3.3389-3.2166 9.6819-0.7773 0.115-1.6081 0.201-2.5254 0.234 11.664 1.981 14.806-1.064 9.463-9.1093 0.776-0.115 1.621-0.1899 2.537-0.2226-1.067-0.1811-2.048-0.3109-2.973-0.4082-0.589-0.8474-1.237-1.7278-2.004-2.6797zm1.4648 3.4883c1.448 4.6745-0.216 7.5155-4.9919 8.5235-1.4487-4.675 0.2191-7.5149 4.9919-8.5235zm-5.1618 8.5625c-0.20387 0.04048-0.4121 0.07733-0.62695 0.11133 0.21532-0.03441 0.42419-0.07022 0.62695-0.11133zm-0.3731 0.771c0.588 0.84388 1.2604 1.7381 2.0234 2.6855-0.4775-0.91641-0.86442-1.7803-1.1699-2.5957-0.2705-0.02201-0.56902-0.05983-0.85352-0.08984z"/>
 <g transform="matrix(.5 0 0 .50023 0 -1.0104)">
  <path fill="#f37421" d="m26.046 11c16.94 21.016 12.258 29.291-14.046 24.827 17.66-0.631 22.342-8.907 14.046-24.827"/>
  <path fill="#2183f3" d="m23.484 16.006c-12.729 0.219-14.861 6.682-6.427 19.371 0.675-0.101 1.324-0.217 1.939-0.35-3.532-11.37 2.134-17.322 17.004-17.853-4.932-0.837-9.104-1.227-12.516-1.168zm-5.576 20.627c1.176 1.687 2.519 3.473 4.045 5.367-0.955-1.832-1.729-3.558-2.34-5.188-0.541-0.044-1.136-0.119-1.705-0.179z"/>
 </g>
</svg>

<?xml version="1.0" encoding="UTF-8" standalone="no"?>
<svg xmlns="http://www.w3.org/2000/svg" height="24" width="24" version="1">
 <circle r="10" cy="12.5" cx="12" style="opacity:0.2"/>
 <circle style="fill:#cccccc" cx="12" cy="12" r="10"/>
 <path d="M 13.023,4.9922 C 13.503,5.9123 13.883,6.7757 14.189,7.5938 13.307,7.5222 12.482,7.4833 11.742,7.4961 5.3802,7.6056 4.3143,10.835 8.5254,17.178 7.7481,17.293 6.9173,17.379 6,17.412 17.664,19.393 20.806,16.348 15.463,8.3027 16.239,8.1877 17.084,8.1128 18,8.0801 16.933,7.899 15.952,7.7692 15.027,7.6719 14.438,6.8245 13.79,5.9441 13.023,4.9922 Z M 14.488,8.4805 C 15.936,13.155 14.272,15.996 9.4959,17.004 8.0472,12.329 9.715,9.489 14.488,8.4805 Z M 9.326,17.043 C 9.1221,17.083 8.9139,17.12 8.699,17.154 8.9144,17.12 9.1232,17.084 9.326,17.043 Z M 8.9529,17.814 C 9.5409,18.658 10.213,19.552 10.976,20.5 10.499,19.583 10.112,18.719 9.8064,17.904 9.5359,17.882 9.2374,17.844 8.9529,17.814 Z" style="opacity:0.1"/>
 <path style="fill:#f37421" d="M 13.023,4.4921 C 21.493,15.005 19.152,19.144 6,16.911 14.83,16.596 17.171,12.456 13.023,4.4921"/>
 <path style="fill:#2183f3" d="M 11.742,6.9963 C 5.3775,7.1058 4.3115,10.339 8.5285,16.686 8.866,16.636 9.1905,16.578 9.498,16.511 7.732,10.823 10.565,7.8462 18,7.5806 15.534,7.1619 13.448,6.9668 11.742,6.9963 Z M 8.954,17.315 C 9.542,18.158 10.214,19.052 10.977,19.999 10.499,19.083 10.112,18.219 9.8065,17.404 9.536,17.382 9.2385,17.345 8.954,17.315 Z"/>
 <path style="opacity:0.2;fill:#ffffff" d="M 12,2 A 10,10 0 0 0 2,12 10,10 0 0 0 2.0098,12.293 10,10 0 0 1 12,2.5 10,10 0 0 1 21.99,12.207 10,10 0 0 0 22,12 10,10 0 0 0 12,2 Z"/>
</svg>
